images/instagram-social.svg

<svg width="60" height="60" xmlns="http://www.w3.org/2000/svg"><path d="M41.271 22.578v-.006c.502 0 1.005.01 1.508-.002.646-.016 1.172-.57 1.172-1.217v-2.89c0-.691-.547-1.24-1.236-1.241h-2.883a1.234 1.234 0 0 0-1.236 1.243c-.001.955-.004 1.91.003 2.865a1.4 1.4 0 0 0 .073.426c.173.508.639.82 1.209.823l1.39-.001zM32 23.817a6.181 6.181 0 0 0-.142 12.361c3.454.074 6.248-2.686 6.321-6.043.075-3.46-2.717-6.32-6.179-6.318zm-11.954 3.299v13.627c0 .649.562 1.208 1.212 1.208h21.479c.656 0 1.215-.557 1.215-1.212V27.117H41.04a9.545 9.545 0 0 1 .376 4.014 9.322 9.322 0 0 1-1.316 3.803 9.482 9.482 0 0 1-12.725 3.346c-1.579-.885-2.819-2.12-3.685-3.713-1.289-2.373-1.495-4.865-.739-7.451h-2.905zm24.159 18.139c.159-.026.318-.049.475-.083 1.246-.265 2.264-1.304 2.508-2.557.025-.137.045-.273.067-.409V17.794c-.021-.133-.04-.268-.065-.401a3.301 3.301 0 0 0-2.78-2.618c-.058-.007-.113-.02-.17-.03H19.761c-.147.027-.296.047-.441.08a3.29 3.29 0 0 0-2.545 2.766c-.008.057-.02.114-.029.171V42.24c.028.154.05.311.085.465a3.302 3.302 0 0 0 2.77 2.52c.064.008.13.021.195.03h24.409zM0 0h60v60H0V0z" fill="#010101" fill-rule="evenodd"/></svg>

<?xml version="1.0" encoding="UTF-8"?>
<svg width="60px" height="60px" viewBox="0 0 60 60" version="1.1" xmlns="http://www.w3.org/2000/svg" xmlns:xlink="http://www.w3.org/1999/xlink">
    <!-- Generator: Sketch 46.2 (44496) - http://www.bohemiancoding.com/sketch -->
    <title>instagram-social</title>
    <desc>Created with Sketch.</desc>
    <defs></defs>
    <g id="Page-1" stroke="none" stroke-width="1" fill="none" fill-rule="evenodd">
        <g id="instagram-social" fill="#010101">
            <path d="M41.271,22.578 L41.271,22.572 C41.773,22.572 42.276,22.582 42.779,22.57 C43.425,22.554 43.951,22 43.951,21.353 C43.951,20.39 43.951,19.426 43.951,18.463 C43.951,17.772 43.404,17.223 42.715,17.222 C41.754,17.222 40.793,17.221 39.832,17.222 C39.144,17.223 38.596,17.774 38.596,18.465 C38.595,19.42 38.592,20.375 38.599,21.33 C38.6,21.473 38.627,21.621 38.672,21.756 C38.845,22.264 39.311,22.576 39.881,22.579 C40.344,22.579 40.808,22.578 41.271,22.578 Z M32,23.817 C28.616,23.815 25.865,26.538 25.818,29.906 C25.769,33.366 28.538,36.107 31.858,36.178 C35.312,36.252 38.106,33.492 38.179,30.135 C38.254,26.675 35.462,23.815 32,23.817 Z M20.046,27.116 L20.046,27.198 C20.046,31.713 20.045,36.228 20.046,40.743 C20.046,41.392 20.608,41.951 21.258,41.951 C28.418,41.952 35.577,41.952 42.737,41.951 C43.393,41.951 43.952,41.394 43.952,40.739 C43.953,36.23 43.952,31.719 43.952,27.211 L43.952,27.117 L41.04,27.117 C41.451,28.431 41.577,29.768 41.416,31.131 C41.255,32.494 40.815,33.762 40.1,34.934 C39.385,36.106 38.456,37.079 37.321,37.852 C34.377,39.858 30.5,40.034 27.375,38.28 C25.796,37.395 24.556,36.16 23.69,34.567 C22.401,32.194 22.195,29.702 22.951,27.116 C21.983,27.116 21.021,27.116 20.046,27.116 Z M44.205,45.255 C44.364,45.229 44.523,45.206 44.68,45.172 C45.926,44.907 46.944,43.868 47.188,42.615 C47.213,42.478 47.233,42.342 47.255,42.206 L47.255,17.794 C47.234,17.661 47.215,17.526 47.19,17.393 C46.922,16.026 45.794,14.965 44.41,14.775 C44.352,14.768 44.297,14.755 44.24,14.745 L19.761,14.745 C19.614,14.772 19.465,14.792 19.32,14.825 C17.968,15.133 16.968,16.221 16.775,17.591 C16.767,17.648 16.755,17.705 16.746,17.762 L16.746,42.24 C16.774,42.394 16.796,42.551 16.831,42.705 C17.13,44.027 18.258,45.052 19.601,45.225 C19.665,45.233 19.731,45.246 19.796,45.255 L44.205,45.255 L44.205,45.255 Z M0,0 L60,0 L60,60 L0,60 L0,0 Z" id="Shape"></path>
        </g>
    </g>
</svg>
